X: 25
T: Qianshan houshan qu daduan
L: 1/8
M: 2/4
K: D
AB2e/ F/ [I:setbarnb 1]| 
AA2F | 
D B, E F | 
B,4 | 
AB2e/ F/ | 
AA2F | 
D B, A F/ D/ | 
E4 |]

@@@ Tune index: 8899
